svgs/icons/sm/leisure.svg

<svg xmlns="http://www.w3.org/2000/svg" viewBox="0 0 16 16"><path fill="#34363D" d="M5.985 4.333l-.188.5A.268.268 0 0 1 5.544 5H3.456a.268.268 0 0 1-.253-.167l-.188-.5C2.954 4.17 3.084 4 3.268 4h2.463c.185 0 .315.17.254.333zM4.5 0c-.673 0-1.241.542-1.328 1.265l-.17 1.428c-.019.163.098.307.249.307h2.497c.152 0 .269-.144.25-.307l-.17-1.428C5.741.542 5.173 0 4.5 0zM1.995 10.98c0 1.695.232 3.24.613 4.426.115.357.417.594.759.594h2.256c.342 0 .645-.237.759-.594.381-1.186.613-2.731.613-4.426 0-1.877-.81-3.571-1.318-4.796A.281.281 0 0 0 5.416 6H3.574a.282.282 0 0 0-.261.184c-.508 1.225-1.318 2.919-1.318 4.796zm7.2-4.58c-.768 0-1.488.19-2.131.511.457 1.13.931 2.528.931 4.069 0 1.689-.228 3.332-.637 4.644A4.748 4.748 0 0 0 9.195 16a4.8 4.8 0 1 0 0-9.6zM11 11a1 1 0 1 1 0-2 1 1 0 0 1 0 2z"/></svg>

<?xml version="1.0" encoding="utf-8"?>
<!-- Generator: Adobe Illustrator 19.2.1, SVG Export Plug-In . SVG Version: 6.00 Build 0)  -->
<svg version="1.1" xmlns="http://www.w3.org/2000/svg" xmlns:xlink="http://www.w3.org/1999/xlink" x="0px" y="0px"
	 viewBox="0 0 16 16" enable-background="new 0 0 16 16" xml:space="preserve">
<g id="aw">
	<path fill="#34363D" d="M5.985,4.333l-0.188,0.5C5.759,4.933,5.658,5,5.544,5H3.456C3.342,5,3.241,4.933,3.203,4.833l-0.188-0.5
		C2.954,4.17,3.084,4,3.268,4h2.463C5.916,4,6.046,4.17,5.985,4.333z M4.5,0L4.5,0C3.827,0,3.259,0.542,3.172,1.265l-0.17,1.428
		C2.983,2.856,3.1,3,3.251,3h2.497C5.9,3,6.017,2.856,5.998,2.693l-0.17-1.428C5.741,0.542,5.173,0,4.5,0z M1.995,10.98
		c0,1.695,0.232,3.24,0.613,4.426C2.723,15.763,3.025,16,3.367,16c0.622,0,1.634,0,2.256,0c0.342,0,0.645-0.237,0.759-0.594
		c0.381-1.186,0.613-2.731,0.613-4.426c0-1.877-0.81-3.571-1.318-4.796C5.63,6.069,5.53,6,5.416,6H3.574
		C3.461,6,3.36,6.069,3.313,6.184C2.805,7.409,1.995,9.103,1.995,10.98z M9.195,6.4c-0.768,0-1.488,0.19-2.131,0.511
		c0.457,1.13,0.931,2.528,0.931,4.069c0,1.689-0.228,3.332-0.637,4.644C7.925,15.861,8.543,16,9.195,16c2.651,0,4.8-2.149,4.8-4.8
		C13.995,8.549,11.846,6.4,9.195,6.4z M11,11c-0.552,0-1-0.448-1-1c0-0.552,0.448-1,1-1s1,0.448,1,1C12,10.552,11.552,11,11,11z"/>
</g>
<g id="guides">
</g>
</svg>
